X:208
T:The High Reel
T:Sandy Duff
T:Duffy the Dancer
M:4/4
L:1/8
R:reel
Z:id:hn-reel-121
K:Amix
a2f2 eA~A2|cAeA fAeA|a2f2 eA~A2|Bcdc BG~G2|
a2f2 eA~A2|(3Bcd ef g2fg|afge fdec|Bcdc BG~G2:|
|:(3cBA eA fAed|(3cBA af eA~A2|(3cBA eA fAec|Bcdc BG~G2|
(3cBA eA fAeA|(3Bcd ef g2fg|afge fdec|Bcdc BG~G2:|
